X: 792
T: Suku fanshen
%%abc-version 2.0
%%abcx-abcm2ps-target-version 5.9.1 (29 Sep 2008)
%%abc-creator hum2abc beta
%%abcx-conversion-date 2013/10/02 07:52:31
%%abc-edited-by Helmut Schaffrath
%%humdrum-veritas 994459128
%%humdrum-veritas-data 2327105859
%%continueall 1
%%barnumbers 0
L: 1/8
M: 2/4
K: F
c2A c [I:setbarnb 1]| 
d f c A | 
G4 | 
c2A B | 
A GF2- | 
F2G2 | 
c2B A | 
G2C D | 
F4 | 
E2D F | 
G DC2- | 
C2z2 |]  



